img/tw-mini.svg

<svg width="18" height="16" viewBox="0 0 18 16" fill="none" xmlns="http://www.w3.org/2000/svg">
<path fill-rule="evenodd" clip-rule="evenodd" d="M17.979 2.36287C17.9532 2.33216 17.9106 2.32174 17.8743 2.33849C17.3361 2.57948 16.77 2.75273 16.1869 2.85508C16.8059 2.38501 17.2672 1.73406 17.5037 0.987638C17.5151 0.951909 17.5033 0.912829 17.4744 0.889567C17.4453 0.866306 17.4049 0.863328 17.373 0.882496C16.6758 1.2999 15.9206 1.59412 15.1276 1.75732C14.4248 1.02114 13.4435 0.600006 12.4278 0.600006C10.3623 0.600006 8.68211 2.29606 8.68211 4.38086C8.68211 4.63302 8.70626 4.88276 8.75419 5.12524C5.89336 4.94696 3.21836 3.56056 1.3995 1.30865C1.38088 1.28557 1.35268 1.27273 1.32318 1.27571C1.29387 1.27794 1.26769 1.29469 1.25294 1.32019C0.921099 1.89484 0.745777 2.55231 0.745777 3.22113C0.745777 4.38031 1.2675 5.46411 2.15591 6.17927C1.69853 6.12381 1.25183 5.97847 0.849016 5.75274C0.821916 5.7373 0.788179 5.73748 0.761078 5.7533C0.733978 5.76893 0.716833 5.79796 0.716095 5.8296L0.715727 5.87798C0.715727 7.54277 1.8025 9.00454 3.3487 9.48987C2.94145 9.55612 2.51891 9.55165 2.10356 9.47163C2.07295 9.46586 2.04088 9.47647 2.01986 9.50029C1.99903 9.52411 1.99202 9.55742 2.00161 9.58757C2.46526 11.0484 3.75354 12.0728 5.25309 12.2005C4.00224 13.1256 2.5237 13.613 0.961473 13.613C0.673694 13.613 0.383886 13.5956 0.0999786 13.562C0.0594204 13.5573 0.0192308 13.5817 0.00521981 13.621C-0.00879122 13.6606 0.00614159 13.7049 0.0411692 13.7274C1.73171 14.8218 3.68643 15.4 5.69425 15.4C12.2619 15.4 16.1865 10.0148 16.1865 4.80869C16.1865 4.66373 16.1837 4.5195 16.178 4.37565C16.8865 3.85254 17.4947 3.2122 17.9851 2.47099C18.007 2.43786 18.0046 2.39376 17.979 2.36287Z" fill="white"/>
</svg>

<svg width="18" height="16" fill="none" xmlns="http://www.w3.org/2000/svg"><path fill-rule="evenodd" clip-rule="evenodd" d="M17.979 2.363a.088.088 0 0 0-.105-.025 7.151 7.151 0 0 1-1.687.517A3.777 3.777 0 0 0 17.504.988a.09.09 0 0 0-.03-.098.089.089 0 0 0-.101-.008 7.177 7.177 0 0 1-2.245.875A3.745 3.745 0 0 0 12.428.6c-2.066 0-3.746 1.696-3.746 3.78 0 .253.024.503.072.745A10.298 10.298 0 0 1 1.4 1.31a.09.09 0 0 0-.147.012 3.806 3.806 0 0 0-.507 1.9c0 1.16.522 2.243 1.41 2.958a3.557 3.557 0 0 1-1.307-.426.088.088 0 0 0-.088 0 .09.09 0 0 0-.045.077v.048A3.79 3.79 0 0 0 3.349 9.49c-.408.066-.83.062-1.245-.018a.09.09 0 0 0-.102.116A3.752 3.752 0 0 0 5.253 12.2a7.154 7.154 0 0 1-4.292 1.412c-.287 0-.577-.017-.861-.051a.09.09 0 0 0-.095.059.09.09 0 0 0 .036.106A10.38 10.38 0 0 0 5.694 15.4c6.568 0 10.492-5.385 10.492-10.591 0-.145-.002-.29-.008-.433a7.51 7.51 0 0 0 1.807-1.905.091.091 0 0 0-.006-.108Z" fill="#fff"/></svg>
